X:1
T:PANDEEN O'RAFFERTY -- JIG
R:jig
B:Ryan's Mammoth Collection
Z: Contributed by Ray Davies ray:davies99.freeserve.co.uk 27june02
M:6/8
L:1/8
K:A
vc2E EFE|Edc BAB|(Ec).c (EB).B|ABA AFE|
(Ec).c (EB).B|ABc def|edc BcB|ABA AFE:||:
vAce Adf|Ace Bcd|Ace fga|ABA AFE|
Ace Adf|Ace agf|efe dcB|ABA AFE:|
